build/finance/DigitalMoneySolid.svg

<svg xmlns="http://www.w3.org/2000/svg" fill="none" viewBox="0 0 24 24" focusable="false"><path d="M0 0H24V24H0z"/><path fill="#74767B" fill-rule="evenodd" d="M12.6501 3.6406L12.6501 6.32728C13.2485 6.39512 13.8188 6.55547 14.3464 6.79366L14.3464 4.64564C14.3464 4.28665 14.6374 3.99564 14.9964 3.99564C15.3554 3.99564 15.6464 4.28665 15.6464 4.64564L15.6464 7.59461L15.6463 7.6067C15.9145 7.82952 16.1619 8.07641 16.3852 8.34406L19.3667 8.34406C19.7256 8.34406 20.0167 8.63508 20.0167 8.99406C20.0167 9.35305 19.7256 9.64406 19.3667 9.64406L17.2019 9.64406C17.4424 10.1744 17.6043 10.748 17.6725 11.35L20.3797 11.35C20.7387 11.35 21.0297 11.6411 21.0297 12C21.0297 12.359 20.7387 12.65 20.3797 12.65L17.6725 12.65C17.6045 13.2498 17.4436 13.8214 17.2045 14.35L19.3566 14.35C19.7156 14.35 20.0066 14.6411 20.0066 15C20.0066 15.359 19.7156 15.65 19.3566 15.65L16.3901 15.65C16.1655 15.9199 15.9165 16.1687 15.6465 16.3931L15.6465 19.3515C15.6465 19.7105 15.3555 20.0015 14.9965 20.0015C14.6375 20.0015 14.3465 19.7105 14.3465 19.3515L14.3465 17.2062C13.8188 17.4445 13.2485 17.6048 12.6501 17.6727L12.6501 20.3477C12.6501 20.7066 12.3591 20.9977 12.0001 20.9977C11.6411 20.9977 11.3501 20.7066 11.3501 20.3477L11.3501 17.6727C10.7518 17.605 10.1816 17.4447 9.65401 17.2067L9.65401 19.3653C9.65401 19.7243 9.363 20.0153 9.00401 20.0153C8.64503 20.0153 8.35402 19.7243 8.35402 19.3653L8.35402 16.3939C8.08364 16.1693 7.83433 15.9202 7.60948 15.6501L4.64456 15.6501C4.28557 15.6501 3.99456 15.3591 3.99456 15.0001C3.99456 14.6411 4.28557 14.3501 4.64456 14.3501L6.79503 14.3501C6.55593 13.8214 6.39502 13.2498 6.32705 12.65L3.65261 12.65C3.29362 12.65 3.00261 12.359 3.00261 12C3.00261 11.641 3.29362 11.35 3.65261 11.35L6.32704 11.35C6.39526 10.748 6.55708 10.1745 6.7976 9.64419L4.65199 9.64419C4.29301 9.64419 4.00199 9.35317 4.00199 8.99419C4.00199 8.6352 4.29301 8.34419 4.65199 8.34419L7.6142 8.34419C7.83659 8.07769 8.08281 7.83178 8.34959 7.60973L8.34959 4.64568C8.34959 4.2867 8.64061 3.99568 8.99959 3.99568C9.35858 3.99568 9.64959 4.2867 9.64959 4.64568L9.64959 6.79526C10.1784 6.5561 10.7501 6.39516 11.3501 6.32721L11.3501 3.6406C11.3501 3.28162 11.6411 2.9906 12.0001 2.9906C12.3591 2.9906 12.6501 3.28162 12.6501 3.6406ZM13.077 12.5071L11.2984 12.5071L11.2984 13.2065L13.0419 13.2065C13.4009 13.2065 13.6919 13.4975 13.6919 13.8565C13.6919 14.2154 13.4009 14.5065 13.0419 14.5065L11.2984 14.5065L11.2984 15C11.2984 15.359 11.0074 15.65 10.6484 15.65C10.2895 15.65 9.99844 15.359 9.99844 15L9.99844 14.5065L9.57503 14.5065C9.21605 14.5065 8.92503 14.2154 8.92503 13.8565C8.92503 13.4975 9.21605 13.2065 9.57503 13.2065L9.99844 13.2065L9.99844 12.5071L9.58353 12.5071C9.22454 12.5071 8.93353 12.2161 8.93353 11.8571C8.93353 11.4981 9.22454 11.2071 9.58353 11.2071L9.99844 11.2071L9.99844 9.29878C9.99844 8.77073 10.4272 8.34998 10.9484 8.34998L13.077 8.34998C14.225 8.34998 15.1556 9.28058 15.1556 10.4285C15.1556 11.5765 14.225 12.5071 13.077 12.5071ZM11.2984 11.2071L11.2984 9.64998L13.077 9.64998C13.507 9.64998 13.8556 9.99855 13.8556 10.4285C13.8556 10.8585 13.507 11.2071 13.077 11.2071L11.2984 11.2071Z"/></svg>

<svg xmlns="http://www.w3.org/2000/svg" fill="none" viewBox="0 0 24 24" focusable="false"><path fill="#74767B" fill-rule="evenodd" d="M12.65 3.64v2.68c.59.07 1.16.23 1.69.47V4.64c0-.36.29-.65.65-.65s.65.29.65.65V7.6c.27.22.52.47.74.74h2.98c.36 0 .65.29.65.65s-.29.65-.65.65H17.2c.24.53.4 1.1.47 1.71h2.7c.36 0 .65.29.65.65 0 .35-.29.65-.65.65h-2.7a5.8 5.8 0 0 1-.47 1.7h2.15c.36 0 .65.29.65.65 0 .35-.29.65-.65.65h-2.96c-.23.26-.48.51-.75.74v2.96c0 .36-.29.65-.65.65s-.65-.29-.65-.65V17.2c-.53.24-1.1.4-1.69.47v2.67c0 .36-.3.65-.65.65-.36 0-.65-.29-.65-.65v-2.67c-.6-.07-1.17-.23-1.7-.47v2.16c0 .36-.29.65-.65.65s-.65-.29-.65-.65v-2.97c-.27-.23-.52-.47-.75-.74H4.64c-.36 0-.65-.3-.65-.65 0-.36.29-.65.65-.65h2.15a5.8 5.8 0 0 1-.47-1.7H3.65c-.36 0-.65-.3-.65-.65 0-.36.29-.65.65-.65h2.67c.07-.61.23-1.18.47-1.71H4.65c-.36 0-.65-.29-.65-.65s.29-.65.65-.65h2.96c.22-.27.47-.51.73-.74V4.64c0-.36.3-.65.65-.65.36 0 .65.29.65.65v2.15c.53-.24 1.11-.4 1.71-.47V3.64c0-.36.29-.65.65-.65.35 0 .65.29.65.65m.42 8.86h-1.78v.7h1.75c.36 0 .65.29.65.65s-.29.65-.65.65h-1.75v.5c0 .35-.29.65-.65.65s-.65-.3-.65-.65v-.5h-.42c-.36 0-.65-.29-.65-.65s.29-.65.65-.65h.42v-.7h-.41c-.36 0-.65-.29-.65-.65s.29-.65.65-.65h.41V9.29c0-.52.43-.95.95-.95h2.13c1.15 0 2.08.94 2.08 2.08 0 1.15-.93 2.08-2.08 2.08m-1.78-1.3V9.64h1.78a.781.781 0 0 1 0 1.56z"/></svg>
